X:1
T:Title
%%score { 1 | 2 }
L:1/8
M:4/4
K:F
V:1 treble nm="Grand Piano"
V:2 bass 
V:1
 z4 z2[Q:1/4=94] A2 | c2 B2 A2 _A2 | A2 [EG]2 F2 F2 | G2 F2 B2 A2 |[M:3/4] G2 F2 [EG]2 | %5
[M:1/4] [EG]2 |[M:4/4] [CFA]2 [^CGA]2 [DFA]2 [A,EA]2 | [B,DA]2 [DG]2 [^CEA]2 [=CEG]2 | %8
 A2 c2 B2 [DG]2 |[M:3/4] F2 E2 F2 |] %10
V:2
 z4 z2 [F,CF]2 | [F,_EF]2 [F,DF]2 [F,CF]2 [F,=B,F]2 | [F,CF]2 [C,B,]2 [D,A,]2 [A,C]2 | %3
 [B,CE]2 [A,C]2 [G,CE]2 [F,CF]2 |[M:3/4] [E,C]2 [D,=B,D]2 [C,C]2 |[M:1/4] [C,C]2 | %6
[M:4/4] F,2 E,2 D,2 C,2 | B,,2 B,,2 A,,2 C,2 | [F,CF]2 [^F,A,_E]2 [G,D]2 [B,,B,]2 | %9
[M:3/4] [C,A,C]2 [C,G,C]2 [F,A,C]2 |] %10

